X: 32230
T: Phrygian Whistle, The
R: reel
M: 4/4
K: Gmajor
c|Bffe f2ef|geef decd|Bffe f2ab|gceg f3:|
B|bfff gfff|fedf edB2|bfff gfff|efaf faaa|
b3f gfff|fedf edB2|ABdB eBfB|bBBA FEDE||
FBBB cBBB|fBBB cBDE|FBBB cBfB|B2cA B3E|
FBBB cBBB|fBBB AGF2|EDEF GABd|eBBA B3B||
bBaB gBfB|EFFF ABBB|bBaB gBfB|edef affa|
b3f gfff|fedf edB2|ABdB fedc|edcA B3||

